!!!id: EG096
!!!page: 123-125
!!!COM: Anonymous
!!!LYR: Anonymous
!!!PTL@@FR: Chansons Populaires du Canada
!!!OTL@@FR: Tenaouiche tenaga, ouich'ka!
!!!PUB: G. E. Desbarats
!!!PDT: 1865
!!!AGN-Laforte:
!!!AGN-type:
!!!AGN-rime:
**kern	**text	**text	**text	**text
*clefG2	*	*	*	*
*k[f#]	*	*	*	*
*G:	*	*	*	*
*M3/8	*	*	*	*
*	*v:1	*v:2	*v:3	*v:4
*	*pline:1	*pline:3r	*pline:5r	*pline:7r
8g	C'é-	A-	Ton	C'est
=1	=1	=1	=1	=1
4a	-tait	-vec	ca-	qua-
8b/	un	sa	-ma-	-tre
=2	=2	=2	=2	=2
4e	vieux	vieill'	-rad[e]	vieux
8f#	sau-	cou-	est	sau-
=3	=3	=3	=3	=3
4.g	-va-	-ver-	mo-	-va-
=4	=4	=4	=4	=4
4g	-ge	-te	-re,	-ges
*	*pline:2Ha	*pline:4Har	*pline:6Har	*pline:8Har
8g	Tout	Et	Est	Qui
=5	=5	=5	=5	=5
4a	noir,	son	mort	port'nt
8b/	tout	sac	et	les
!!LO:PB:g=original
=6	=6	=6	=6	=6
4e	bar-	à	en-	coins
8f#	-boui-	ta-	-ter-	du
=7	=7	=7	=7	=7
4g	-lla,	-bac	-ra.	drap,
*	*pline:2Hb	*pline:4Hbr	*pline:6Hbr	*pline:8Har
8g	Ouich'-	Ouich'-	Ouich'-	Ouich'-
=8	=8	=8	=8	=8
8g	-ka!	-ka!	-ka!	-ka!
8r	.	.	.	.
*	*pline:3	*pline:5	*pline:7	*pline:9
8dd	A-	Ton	C'est	Et
=9	=9	=9	=9	=9
4dd	-vec	ca-	qua-	deux
8dd	sa	-ma-	-tre	vieill's
=10	=10	=10	=10	=10
4dd	vieill'	-rad[e]	vieux	sau-
8dd	cou-	est	sau-	-va-
=11	=11	=11	=11	=11
4.ee	-ver-	mo-	-va-	-ges-
!!LO:PB:g=original
=12	=12	=12	=12	=12
4cc	-te	-re,	ges	-ses
*	*pline:4Ha	*pline:6Ha	*pline:8Ha	*pline:10Ha
8dd	Et	Est	Qui	Qui
=13	=13	=13	=13	=13
4ee	son	mort	port'nt	chant'nt
8dd	sac	et	les	le
=14	=14	=14	=14	=14
*	*	*	*	*italic
4cc	à	en-	coins	li-
8b	ta-	-ter-	du	-be-
=15	=15	=15	=15	=15
4a	-bac.	-ra.	drap.	-ra.
*	*pline:4Hb	*pline:6Hb	*pline:8Hb	*pline:10Hb
*	*	*	*	*Xitalic
8a	Ouich'-	Ouich'-	Ouich'-	Ouich'-
=16	=16	=16	=16	=16
4a	-ka!	-ka!	-ka!	-ka!
8r	.	.	.	.
*>Refrain	*>Refrain	*>Refrain	*>Refrain	*>Refrain
*	*refrain	*	*	*
*	*italic	*	*	*
*	*pline:R1Ha	*	*	*
=17	=17	=17	=17	=17
4.dd	Ah!	.	.	.
=18	=18	=18	=18	=18
8b	ah!	.	.	.
8cc	te-	.	.	.
8b	-na-	.	.	.
!!LO:PB:g=original
=19	=19	=19	=19	=19
8a	-ouich'	.	.	.
8b/	te-	.	.	.
8a	-na-	.	.	.
=20	=20	=20	=20	=20
8g	-ga,	.	.	.
*	*pline:R1Hb	*	*	*
8cc	Te-	.	.	.
8b	-na-	.	.	.
=21	=21	=21	=21	=21
8a	-ouich'	.	.	.
8b/	te-	.	.	.
8a	-na-	.	.	.
=22	=22	=22	=22	=22
4g	-ga,	.	.	.
8f#	ouich'	.	.	.
!!LO:PB:g=original
=23	=23	=23	=23	=23
8g	-ka!	.	.	.
*	*Xitalic	*	*	*
*	*Xrefrain	*	*	*
4r	.	.	.	.
=24	=24	=24	=24	=24
4r	.	.	.	.
==	==	==	==	==
8r	.	.	.	.
==	==	==	==	==
*-	*-	*-	*-	*-
!!!EED-1: Samuel Boone
!!!EEV-1: 2026/03/19
